X: 52
T: Pollonesse #52
M: 3/4
L: 1/16
K: Dm
Q:120
Ad^ce d4c4|d^cde f4e4|f2fd g2ge a2af|ge^ce d2dA GFED|
A,D^CE E4 ^C4|D^CEF G4 [E4A,4]|F2FD G2GE A2AG|FED^C ^C4 D4:|
gfed c4B4|Acfa gbeg f4|gfed c4B4|Acfa gbeg f4|Ad^ce d4 ^c4|d^cde f4e4|
A,D^CE D4 ^C4|D^CDE F4 [E4A,4]|F2FD G2GE A2AG|FED^C ^C4 D4:|
N: F i 2:a reprisens 8:e takt står noterat med ett b-förtecken i orginalet

